teeny/solid/folder-tick.svg

<svg width="15" height="15" viewBox="0 0 15 15" fill="none" xmlns="http://www.w3.org/2000/svg">
<path fill-rule="evenodd" clip-rule="evenodd" d="M0 2.5C0 1.67157 0.671573 1 1.5 1H5.70711L7.70711 3H13.5C14.3284 3 15 3.67157 15 4.5V12.5C15 13.3284 14.3284 14 13.5 14H1.5C0.671573 14 0 13.3284 0 12.5V2.5ZM7.02439 11.2315L10.8763 6.82928L10.1237 6.17078L6.97568 9.76857L5.35359 8.14648L4.64648 8.85358L7.02439 11.2315Z" fill="black"/>
</svg>

<svg viewBox="0 0 15 15" xmlns="http://www.w3.org/2000/svg"><path fill-rule="evenodd" d="M0 2.5C0 1.67.67 1 1.5 1h4.2l2 2h5.79c.82 0 1.5.67 1.5 1.5v8c0 .82-.68 1.5-1.5 1.5h-12c-.83 0-1.5-.68-1.5-1.5v-10Zm7.02 8.73l3.85-4.41 -.76-.66 -3.15 3.59 -1.63-1.63 -.71.7 2.37 2.37Z"/></svg>
